X:43
T:mwynen mai [Gentle May]
T:llafar haf &amp; gwen lliw'r lili
C:traddodiadol
S:jenkins ceri mss. nlw.ms.1940a
N:Ddor
O:traditional welsh
Z:crm
M:4/4
Q:1/4=70
K:Gm
D|GABc|dfze|dedA|BAzB|GABc|dfze|dgf2e/|d3d|
dgfd|edze|fedA|BAzB|GABc|dgzd|dcBA|G3
